X: 25803
T: Mason's Apron, The
R: reel
M: 4/4
K: Amajor
|:af|e2cA B2AF|EFAB c2BA|F(3BBB c(3BBB|cBce agaf|
e2cA B2AF|EFAB c2BA|dcde fgaf|ecBc A3:|
|:B|c2ec fcec|c2 ec fcec|d2fd=gdfc|d2fd=gdfd|
c2ec fcec|c2 ec fcec|dcde fgaf|ecBc A3:|

